X:1
T:Gartenlieder, Op.3
T:Hörst du nicht die Bäume rauschen
T:Gartenlieder, Op.3
T:Fanny (Mendelssohn) Hensel
T:Joseph von Eichendorff
T:1. Hörst du nicht die Bäume rauschen
T:Creative Commons copyright waiver (CC0 1.0 Universal)
T:Creative Commons copyright waiver (CC0 1.0 Universal)
T:Creative Commons copyright waiver (CC0 1.0 Universal)
T:Creative Commons copyright waiver (CC0 1.0 Universal)
T:Creative Commons copyright waiver (CC0 1.0 Universal)
C:Fanny (Mendelssohn) Hensel
Z:Joseph von Eichendorff
Z:Creative Commons copyright waiver (CC0 1.0 Universal)
%%score [ 1 2 3 4 ]
L:1/8
Q:1/4=116
M:4/4
K:B
V:1 treble nm="Soprano"
V:2 treble nm="Alto"
V:3 treble-8 nm="Tenor"
V:4 bass nm="Bass"
V:1
"^Allegretto"!p! d3"^NOTE TO TRANSCRIBER: we suggest that you always fill in the lyrics below the SAT staves;\nthis will make it easier for a choir to perform the work.  See example measures.\n" e | %1
w: Hörst du|
 f2 d2 B3 c | B2 A2 A2 GF |!<(! F2 B2 c2!<)! d2 | e4!p! z4 | z8 | z8 | z8 | z8 | z8 | z8 | z8 | %12
w: nicht die Bäu- me|rau- schen, draus- sen *|durch die stil- le|Rund?||||||||
 z8 | z8 | z8 | z8 | z8 | z8 | z8 | z8 | z8 | z8 | z8 | z8 | z8 | z8 | z8 | z8 | z8 | z8 | z8 | %31
w: |||||||||||||||||||
 z8 | z8 | z8 | z8 | z8 | z8 | z8 | z8 | z8 | z8 | z8 | z8 | z8 | z8 | z8 | z8 | z8 | z8 | z8 | %50
w: |||||||||||||||||||
 z8 | z8 | z8 |] %53
w: |||
V:2
!p! F3 F | F2 F2 F3 ^E | F2 F2 F2 F2 | F2 F2 F2 F2 | F4!p! z4 | z8 | z8 | z8 | z8 | z8 | z8 | z8 | %12
w: Hörst du|nicht die Bäu- me|rau- schen, draus- sen|durch die stil- le|Rund?||||||||
 z8 | z8 | z8 | z8 | z8 | z8 | z8 | z8 | z8 | z8 | z8 | z8 | z8 | z8 | z8 | z8 | z8 | z8 | z8 | %31
w: |||||||||||||||||||
 z8 | z8 | z8 | z8 | z8 | z8 | z8 | z8 | z8 | z8 | z8 | z8 | z8 | z8 | z8 | z8 | z8 | z8 | z8 | %50
w: |||||||||||||||||||
 z8 | z8 | z8 |] %53
w: |||
V:3
!p! d3 d | c2 d2 d3 c | d2 c2 c2 BA |!<(! B2 B2 A2!<)! B2 | c4!p! z4 | z8 | z8 | z8 | z8 | z8 | %10
w: Hörst du|nicht die Bäu- me|rau- schen, draus- sen *|durch die stil- le|Rund?||||||
 z8 | z8 | z8 | z8 | z8 | z8 | z8 | z8 | z8 | z8 | z8 | z8 | z8 | z8 | z8 | z8 | z8 | z8 | z8 | %29
w: |||||||||||||||||||
 z8 | z8 | z8 | z8 | z8 | z8 | z8 | z8 | z8 | z8 | z8 | z8 | z8 | z8 | z8 | z8 | z8 | z8 | z8 | %48
w: |||||||||||||||||||
 z8 | z8 | z8 | z8 | z8 |] %53
w: |||||
V:4
!p! D,3 E, | F,2 D,2 B,,3 C, | B,,2 A,,2 A,,2 G,,2 |!<(! F,,2 B,,2 C,2!<)! D,2 | E,4!p! z4 | z8 | %6
 z8 | z8 | z8 | z8 | z8 | z8 | z8 | z8 | z8 | z8 | z8 | z8 | z8 | z8 | z8 | z8 | z8 | z8 | z8 | %25
 z8 | z8 | z8 | z8 | z8 | z8 | z8 | z8 | z8 | z8 | z8 | z8 | z8 | z8 | z8 | z8 | z8 | z8 | z8 | %44
 z8 | z8 | z8 | z8 | z8 | z8 | z8 | z8 | z8 |] %53

